dist/img/svg/handset.svg

<svg width="16" height="17" viewBox="0 0 16 17" fill="none" xmlns="http://www.w3.org/2000/svg">
<path fill-rule="evenodd" clip-rule="evenodd" d="M5.44833 11.0523C8.01166 13.6157 10.387 13.8963 11.0843 13.9223C11.927 13.953 12.787 13.265 13.159 12.5603C12.5657 11.8643 11.793 11.3243 10.947 10.739C10.4477 11.2377 9.83233 12.1643 9.01299 11.8323C8.54699 11.645 7.39633 11.115 6.39099 10.109C5.38566 9.10299 4.85566 7.95299 4.66699 7.48766C4.33499 6.66699 5.26433 6.05032 5.76366 5.55099C5.17833 4.69099 4.64766 3.89832 3.95299 3.33499C3.23833 3.70832 2.54633 4.56166 2.57766 5.41566C2.60366 6.11299 2.88433 8.48832 5.44833 11.0523ZM11.035 15.255C10.075 15.2197 7.35433 14.8437 4.50499 11.995C1.65633 9.14566 1.28099 6.42566 1.24499 5.46499C1.19166 4.00099 2.31299 2.57899 3.60833 2.02366C3.76431 1.9563 3.93513 1.93066 4.10401 1.94924C4.2729 1.96782 4.43405 2.02999 4.57166 2.12966C5.64366 2.91166 6.38299 4.09632 7.01833 5.02432C7.15049 5.21729 7.21104 5.45039 7.18949 5.68328C7.16794 5.91618 7.06565 6.13421 6.90033 6.29966L5.99633 7.20432C6.20633 7.66766 6.63366 8.46632 7.33366 9.16632C8.03366 9.86632 8.83233 10.2937 9.29633 10.5037L10.1997 9.59966C10.3655 9.43363 10.5845 9.33123 10.8183 9.31039C11.052 9.28955 11.2857 9.35159 11.4783 9.48566C12.425 10.1417 13.537 10.8703 14.3477 11.9083C14.4554 12.0469 14.524 12.2119 14.5461 12.3861C14.5683 12.5602 14.5433 12.7371 14.4737 12.8983C13.9157 14.2003 12.5037 15.309 11.035 15.255Z" fill="currentColor"/>
</svg>

<svg width="16" height="17" viewBox="0 0 16 17" fill="none" xmlns="http://www.w3.org/2000/svg"><path fill-rule="evenodd" clip-rule="evenodd" d="M5.448 11.052c2.564 2.564 4.939 2.844 5.636 2.87.843.031 1.703-.657 2.075-1.362-.593-.696-1.366-1.236-2.212-1.821-.5.499-1.115 1.425-1.934 1.093a8.136 8.136 0 01-2.622-1.723C5.386 9.103 4.856 7.953 4.667 7.488c-.332-.821.597-1.438 1.097-1.937-.586-.86-1.116-1.653-1.811-2.216-.715.373-1.407 1.227-1.375 2.08.026.698.306 3.073 2.87 5.637zm5.587 4.203c-.96-.035-3.68-.411-6.53-3.26-2.849-2.85-3.224-5.57-3.26-6.53-.053-1.464 1.068-2.886 2.363-3.441a.98.98 0 01.964.106c1.072.782 1.811 1.966 2.446 2.894A1.003 1.003 0 016.9 6.3l-.904.904a6.82 6.82 0 001.338 1.962c.7.7 1.498 1.128 1.962 1.338L10.2 9.6a1 1 0 011.278-.114c.947.656 2.059 1.384 2.87 2.422a.98.98 0 01.126.99c-.558 1.302-1.97 2.411-3.439 2.357z" fill="currentColor"/></svg>
